public/iconset/Tag.svg

<?xml version="1.0" encoding="UTF-8"?>
<svg width="24px" height="24px" viewBox="0 0 24 24" version="1.1" xmlns="http://www.w3.org/2000/svg" xmlns:xlink="http://www.w3.org/1999/xlink">
    <!-- Generator: Sketch 48.1 (47250) - http://www.bohemiancoding.com/sketch -->
    <title>24x24</title>
    <desc>Created with Sketch.</desc>
    <defs></defs>
    <g id="Page-1" stroke="none" stroke-width="1" fill="none" fill-rule="evenodd">
        <g id="Tag">
            <rect id="24x24" x="0" y="0" width="24" height="24"></rect>
            <path d="M5.34,7.34 L5.34,11.59 C5.34223279,12.1195768 5.55441221,12.6266497 5.93,13 L11,18.07 C11.3751365,18.4455541 11.8841815,18.6565733 12.415,18.6565733 C12.9458185,18.6565733 13.4548635,18.4455541 13.83,18.07 L18.07,13.83 C18.4455541,13.4548635 18.6565733,12.9458185 18.6565733,12.415 C18.6565733,11.8841815 18.4455541,11.3751365 18.07,11 L13,5.93 C12.6266497,5.55441221 12.1195768,5.34223279 11.59,5.34 L7.34,5.34 C6.2354305,5.34 5.34,6.2354305 5.34,7.34 Z M6.34,7.34 C6.34,6.78771525 6.78771525,6.34 7.34,6.34 L11.59,6.34 C11.8537693,6.34375705 12.1053695,6.45158574 12.29,6.64 L17.36,11.71 C17.7477236,12.1000375 17.7477236,12.7299625 17.36,13.12 L13.12,17.36 C12.7299625,17.7477236 12.1000375,17.7477236 11.71,17.36 L6.64,12.29 C6.45158574,12.1053695 6.34375705,11.8537693 6.34,11.59 L6.34,7.34 Z M7,9 C7,10.1045695 7.8954305,11 9,11 C10.1045695,11 11,10.1045695 11,9 C11,7.8954305 10.1045695,7 9,7 C7.8954305,7 7,7.8954305 7,9 Z M8,9 C8,8.44771525 8.44771525,8 9,8 C9.55228475,8 10,8.44771525 10,9 C10,9.55228475 9.55228475,10 9,10 C8.44771525,10 8,9.55228475 8,9 Z" id="Shape" fill="#000000" fill-rule="nonzero"></path>
        </g>
    </g>
</svg>

<svg id="target" xmlns="http://www.w3.org/2000/svg" viewBox="0 0 24 24"><title>Tag</title><path d="M5.34,7.34v4.25A2,2,0,0,0,5.93,13L11,18.07a2,2,0,0,0,2.83,0l4.24-4.24a2,2,0,0,0,0-2.83L13,5.93a2,2,0,0,0-1.41-.59H7.34A2,2,0,0,0,5.34,7.34Zm1,0a1,1,0,0,1,1-1h4.25a1,1,0,0,1,.7.3l5.07,5.07a1,1,0,0,1,0,1.41l-4.24,4.24a1,1,0,0,1-1.41,0L6.64,12.29a1,1,0,0,1-.3-.7Z"/><path d="M7,9A2,2,0,1,0,9,7,2,2,0,0,0,7,9ZM8,9a1,1,0,1,1,1,1A1,1,0,0,1,8,9Z"/></svg>
